packages/foundations/assets/icons/functional/images/social/star_24_filled.svg

<svg width="24" height="24" viewBox="0 0 24 24" fill="none" xmlns="http://www.w3.org/2000/svg">
<g clip-path="url(#clip0_2214_6243)">
<path fill-rule="evenodd" clip-rule="evenodd" d="M6.4375 21.5625C5.8125 21.5625 5.3125 20.9375 5.4375 20.4062L6.4375 14.7188L2.2812 10.6875C2.0938 10.5 2 10.2188 2 9.9375C2 9.4688 2.375 9.0625 2.8438 9L8.5625 8.1562L11.0938 3C11.2812 2.6875 11.625 2.4375 12 2.4375C12.375 2.4375 12.7188 2.6562 12.9062 3L15.4375 8.1562L21.1562 9C21.5625 9.0625 22 9.375 22 9.9375C22 10.2188 21.9062 10.5 21.7188 10.6875L17.5938 14.7188L18.5625 20.4062C18.6875 21.0312 18.1562 21.5625 17.5625 21.5625C17.4062 21.5625 17.25 21.5312 17.0938 21.4375L12 18.7812L6.9062 21.4375C6.75 21.5312 6.5938 21.5625 6.4375 21.5625Z" fill="#1A1C1F"/>
</g>
<defs>
<clipPath id="clip0_2214_6243">
<rect width="24" height="24" fill="white"/>
</clipPath>
</defs>
</svg>

<svg xmlns="http://www.w3.org/2000/svg" width="24" height="24" fill="none"><g clip-path="url(#a)"><path fill="#1A1C1F" fill-rule="evenodd" d="M6.438 21.563c-.625 0-1.125-.625-1-1.157l1-5.687-4.157-4.031C2.094 10.5 2 10.218 2 9.938c0-.47.375-.876.844-.938l5.719-.844L11.093 3c.188-.312.532-.562.907-.562s.719.218.906.562l2.531 5.156 5.72.844c.406.063.843.375.843.938 0 .28-.094.562-.281.75l-4.125 4.03.968 5.688c.125.625-.406 1.157-1 1.157a.9.9 0 0 1-.468-.125L12 18.78l-5.094 2.657a.9.9 0 0 1-.468.125" clip-rule="evenodd"/></g><defs><clipPath id="a"><path fill="#fff" d="M0 0h24v24H0z"/></clipPath></defs></svg>
